X: 1134
T: Bandjaxed Window, The
M: 2/4
L: 1/8
R: jig
K: A Major
|: A>cA F2 E | A>cA F3 | A>cA F2 E | A>BG A3 :|
|: e>fe A3 | e>fe B3 | e>fe c2 B | A>BG A3 :|
